X: 21712
Q: "Strathspey."
M: C|
L: 1/16
K: Gm
f3dc2B2 ABcB A2F2 | G3AB3c dD3G2 :| G2 |\
dg3g3a f3gf2c2 | d2g2 bag^f g4 g2G2 |\
fa3df3 cf3 AF3 | G3AB3c d2D2G2 |]


